images/icons/icons.svg

<svg xmlns="http://www.w3.org/2000/svg" aria-hidden="true" style="position:absolute;width:0;height:0;overflow:hidden"><defs>
<symbol id="arrow" viewBox="0 0 32 32"><path d="M16.947 17.867a1.334 1.334 0 0 1-1.894 0l-6.107-6.12a1.334 1.334 0 1 0-1.894 1.88l6.12 6.12a4.001 4.001 0 0 0 5.654 0l6.12-6.12a1.337 1.337 0 0 0-.434-2.172 1.331 1.331 0 0 0-1.46.292l-6.107 6.12z"/></symbol>
<symbol id="chocolate" viewBox="0 0 32 32"><path fill="#fcf1e0" d="M3.944 20.076 14.721 2.652l.64-.674 8.236 5.491.056 3.314 2.01 3.28-8.88 14.077-12.839-8.063z" style="fill:var(--color2, #fcf1e0)"/><path fill="none" stroke="#fd9222" stroke-linecap="round" stroke-linejoin="round" stroke-width="2.667" d="M21.635 23.88 7.45 15.016m3.911-6.417 14.185 8.864M10.63 25.864l11.736-19.25m4.81 8.175c-3.04-1.899-4.234-3.384-2.278-6.592l-9.626-6.015-11.736 19.25 14.186 8.864 9.454-15.507z" style="stroke:var(--color1, #fd9222)"/></symbol>
<symbol id="chocolate-bar" viewBox="0 0 32 32"><path d="m13.597.456 8.306 8.316.088-.088a.948.948 0 0 1 1.306-.015l.963.963c.337.337.348.85.092 1.207l-.004.008-.158.212 6.797 6.797a1.539 1.539 0 0 1 0 2.185L20.581 30.447a1.539 1.539 0 0 1-2.185 0l-4.907-4.907a.918.918 0 0 1-.675.35.93.93 0 0 1-.71-.272l-2.869-2.869a.948.948 0 0 1-.015-1.306l.007-.008.085-.084-8.306-8.306a1.539 1.539 0 0 1 0-2.185L11.411.455a1.539 1.539 0 0 1 2.185 0v.001zm7.263 9.357-1.938-1.937a.655.655 0 0 0-.938 0l-3.95 3.95a.664.664 0 0 0-.146.731.68.68 0 0 0 .146.217l1.93 1.93.673-.673-1.727-1.727 3.542-3.553 1.731 1.737.676-.676zm-5.602 5.597-1.935-1.935a.655.655 0 0 0-.938 0l-3.961 3.961a.653.653 0 0 0 0 .938l1.933 1.933.68-.68-1.732-1.726 3.553-3.542 1.726 1.725.675-.674zM8.079 6.834l3.95 3.95a.644.644 0 0 0 .938-.011l3.95-3.95a.643.643 0 0 0 .199-.463h.011a.674.674 0 0 0-.199-.474l-3.95-3.95a.667.667 0 0 0-.948 0L8.08 5.897a.653.653 0 0 0 0 .938zm-5.594 5.594 3.95 3.95a.653.653 0 0 0 .938 0l3.95-3.95a.643.643 0 0 0 .199-.474h.011a.655.655 0 0 0-.199-.474l-3.95-3.95a.655.655 0 0 0-.938 0l-3.961 3.961a.653.653 0 0 0 0 .938zm7.65 9.66 2.606 2.607 10.633-14.389-.723-.723-12.516 12.504z" style="fill:var(--color3, #000)"/><path fill="#fd9222" d="m13.597.456 8.306 8.316.088-.088a.948.948 0 0 1 1.306-.015l.963.963c.337.337.348.85.092 1.207l-.004.008-.158.212 6.797 6.797a1.539 1.539 0 0 1 0 2.185L20.581 30.447a1.539 1.539 0 0 1-2.185 0l-4.907-4.907a.918.918 0 0 1-.675.35.93.93 0 0 1-.71-.272l-2.869-2.869a.948.948 0 0 1-.015-1.306l.007-.008.085-.084-8.306-8.306a1.539 1.539 0 0 1 0-2.185L11.411.455a1.539 1.539 0 0 1 2.185 0v.001zm7.263 9.357-1.938-1.937a.655.655 0 0 0-.938 0l-3.95 3.95a.664.664 0 0 0-.146.731.68.68 0 0 0 .146.217l1.93 1.93.673-.673-1.727-1.727 3.542-3.553 1.731 1.737.676-.676zm-5.602 5.597-1.935-1.935a.655.655 0 0 0-.938 0l-3.961 3.961a.653.653 0 0 0 0 .938l1.933 1.933.68-.68-1.732-1.726 3.553-3.542 1.726 1.725.675-.674zM8.079 6.834l3.95 3.95a.644.644 0 0 0 .938-.011l3.95-3.95a.643.643 0 0 0 .199-.463h.011a.674.674 0 0 0-.199-.474l-3.95-3.95a.667.667 0 0 0-.948 0L8.08 5.897a.653.653 0 0 0 0 .938zm-5.594 5.594 3.95 3.95a.653.653 0 0 0 .938 0l3.95-3.95a.643.643 0 0 0 .199-.474h.011a.655.655 0 0 0-.199-.474l-3.95-3.95a.655.655 0 0 0-.938 0l-3.961 3.961a.653.653 0 0 0 0 .938zm7.65 9.66 2.606 2.607 10.633-14.389-.723-.723-12.516 12.504z" style="fill:var(--color1, #fd9222)"/></symbol>
<symbol id="spoon" viewBox="0 0 32 32">
<path fill="#fd9222" style="fill: var(--color1, #fd9222)" d="M15.452 14.106c-0.783-0.95-1.177-2.116-1.177-3.282 0-4.324 5.181-8.642 10.362-8.642 2.86 0 5.181 2.321 5.181 5.182 0 5.182-4.318 10.364-8.646 10.364-1.166 0-2.332-0.394-3.281-1.177l-12.758 12.761c-0.675 0.675-1.77 0.675-2.445 0s-0.675-1.771 0-2.445l12.764-12.761z"></path>
</symbol>
<symbol id="oin" viewBox="0 0 32 32"><path fill="#fd9222" d="M16 2.667c-7.333 0-13.333 6-13.333 13.333s6 13.333 13.333 13.333 13.333-6 13.333-13.333S23.333 2.667 16 2.667zm0 24c-5.867 0-10.667-4.8-10.667-10.667S10.133 5.333 16 5.333 26.667 10.133 26.667 16 21.867 26.667 16 26.667z" style="fill:var(--color1, #fd9222)"/><path fill="#fd9222" d="M17.733 14.667h-3.467c-.667 0-1.2-.533-1.2-1.2s.533-1.2 1.2-1.2h4.933c.8 0 1.333-.533 1.333-1.333s-.533-1.333-1.333-1.333h-1.867v-1.2c0-.8-.533-1.333-1.333-1.333s-1.333.533-1.333 1.333v1.2h-.4c-2.133 0-3.867 1.733-3.867 3.867s1.733 3.867 3.867 3.867h3.333c.667 0 1.2.533 1.2 1.2s-.533 1.2-1.2 1.2h-4.933c-.8 0-1.333.533-1.333 1.333s.533 1.333 1.333 1.333h2v1.2c0 .8.533 1.333 1.333 1.333s1.333-.533 1.333-1.333v-1.2h.4c2.133 0 3.867-1.733 3.867-3.867s-1.733-3.867-3.867-3.867z" style="fill:var(--color1, #fd9222)"/></symbol>

<symbol id="instagram" viewBox="0 0 32 32">
<path stroke-linejoin="round" stroke-linecap="round" stroke-miterlimit="4" stroke-width="2.6667" d="M22.667 2.667h-13.333c-3.682 0-6.667 2.985-6.667 6.667v13.333c0 3.682 2.985 6.667 6.667 6.667h13.333c3.682 0 6.667-2.985 6.667-6.667v-13.333c0-3.682-2.985-6.667-6.667-6.667z"></path>
<path stroke-linejoin="round" stroke-linecap="round" stroke-miterlimit="4" stroke-width="2.6667" d="M21.333 15.16c0.165 1.11-0.025 2.243-0.542 3.239s-1.334 1.803-2.336 2.307c-1.002 0.504-2.138 0.68-3.245 0.502s-2.131-0.701-2.924-1.494-1.316-1.816-1.494-2.924c-0.178-1.108-0.003-2.243 0.502-3.245s1.312-1.819 2.307-2.336c0.996-0.517 2.129-0.706 3.239-0.542 1.132 0.168 2.18 0.695 2.989 1.504s1.337 1.857 1.505 2.989z"></path>
<path stroke-linejoin="round" stroke-linecap="round" stroke-miterlimit="4" stroke-width="2.6667" d="M23.333 8.667h0.013"></path>
</symbol>

<symbol id="twitter" viewBox="0 0 32 32">
<path stroke-linejoin="round" stroke-linecap="round" stroke-miterlimit="4" stroke-width="2.6667" d="M30.667 4c-1.277 0.901-2.691 1.589-4.187 2.040-0.803-0.923-1.87-1.578-3.057-1.875s-2.437-0.222-3.58 0.214c-1.143 0.436-2.125 1.213-2.812 2.226s-1.047 2.212-1.031 3.435v1.333c-2.343 0.061-4.665-0.459-6.759-1.513s-4.561-3.563-5.908-5.481c0 0-4.667 12.954 7.333 18.287-2.746 1.864-6.017 2.799-9.333 2.667 12 6.667 26.667 0 26.667-15.333-0.001-0.371-0.037-0.742-0.107-1.107 1.361-1.342 2.321-3.036 2.773-4.893z"></path>
</symbol>

<symbol id="play" viewBox="0 0 32 32">
<path fill="#f5f4f4" style="fill: var(--color1, #f5f4f4)" d="M10.909 24v-15.273l14.545 7.636-14.545 7.636z"></path>
<path fill="none" stroke="#fff" style="stroke: var(--color2, #fff)" stroke-linejoin="miter" stroke-linecap="butt" stroke-miterlimit="4" stroke-width="0.7273" d="M31.636 16c0 8.636-7.001 15.636-15.636 15.636s-15.636-7.001-15.636-15.636c0-8.636 7.001-15.636 15.636-15.636s15.636 7.001 15.636 15.636z"></path>
</symbol>

<symbol id="ellipse" viewBox="0 0 32 32">
<path fill="#4c4c4c" style="fill: var(--color1, #4c4c4c); stroke: var(--color2, #eceded)" stroke="#eceded" stroke-linejoin="miter" stroke-linecap="butt" stroke-miterlimit="4" stroke-width="4" d="M30 16c0 7.732-6.268 14-14 14s-14-6.268-14-14c0-7.732 6.268-14 14-14s14 6.268 14 14z"></path>
</symbol>

<symbol id="arrow-right" viewBox="0 0 32 32">
<path d="M19.414 27.414l10-10c0.781-0.781 0.781-2.047 0-2.828l-10-10c-0.781-0.781-2.047-0.781-2.828 0s-0.781 2.047 0 2.828l6.586 6.586h-19.172c-1.105 0-2 0.895-2 2s0.895 2 2 2h19.172l-6.586 6.586c-0.39 0.39-0.586 0.902-0.586 1.414s0.195 1.024 0.586 1.414c0.781 0.781 2.047 0.781 2.828 0z"></path>
</symbol>

<symbol id="arrow-left" viewBox="0 0 32 32">
<path d="M12.586 27.414l-10-10c-0.781-0.781-0.781-2.047 0-2.828l10-10c0.781-0.781 2.047-0.781 2.828 0s0.781 2.047 0 2.828l-6.586 6.586h19.172c1.105 0 2 0.895 2 2s-0.895 2-2 2h-19.172l6.586 6.586c0.39 0.39 0.586 0.902 0.586 1.414s-0.195 1.024-0.586 1.414c-0.781 0.781-2.047 0.781-2.828 0z"></path>
</symbol>

<symbol id="close" viewBox="0 0 32 32">
<path d="M32 3.223l-3.223-3.223-12.777 12.777-12.777-12.777-3.223 3.223 12.777 12.777-12.777 12.777 3.223 3.223 12.777-12.777 12.777 12.777 3.223-3.223-12.777-12.777 12.777-12.777z"></path>
</symbol>

<symbol id="arrow-up" viewBox="0 0 32 32">
<path d="M27.414 12.586l-10-10c-0.781-0.781-2.047-0.781-2.828 0l-10 10c-0.781 0.781-0.781 2.047 0 2.828s2.047 0.781 2.828 0l6.586-6.586v19.172c0 1.105 0.895 2 2 2s2-0.895 2-2v-19.172l6.586 6.586c0.39 0.39 0.902 0.586 1.414 0.586s1.024-0.195 1.414-0.586c0.781-0.781 0.781-2.047 0-2.828z"></path>
</symbol>

<symbol id="icon-flag" viewBox="0 0 32 32">
<path fill="#ffd700" style="fill: var(--color1, #ffd700)" d="M31.832 5.058h-31.589v23.508h31.589v-23.508z"></path>
<path fill="#0057b7" style="fill: var(--color2, #0057b7)" d="M0.243 5.058h31.589v11.754h-31.589v-11.754z"></path>
</symbol>

<symbol id="icon-mastercard" viewBox="0 0 51 32">
<path fill="#ed0006" style="fill: var(--color1, #ed0006)" d="M25.6 26.935c-2.556 2.194-5.873 3.518-9.496 3.518-8.086 0-14.641-6.593-14.641-14.726s6.555-14.726 14.641-14.726c3.624 0 6.94 1.324 9.496 3.518 2.557-2.194 5.873-3.518 9.497-3.518 8.086 0 14.64 6.593 14.64 14.726s-6.555 14.726-14.64 14.726c-3.624 0-6.94-1.324-9.497-3.518z"></path>
<path fill="#f9a000" style="fill: var(--color2, #f9a000)" d="M25.6 26.935c3.148-2.701 5.144-6.72 5.144-11.209s-1.996-8.507-5.144-11.208c2.556-2.194 5.873-3.518 9.497-3.518 8.086 0 14.64 6.593 14.64 14.726s-6.555 14.726-14.64 14.726c-3.624 0-6.94-1.324-9.497-3.518z"></path>
<path fill="#ff5e00" style="fill: var(--color3, #ff5e00)" d="M25.6 26.935c3.148-2.701 5.144-6.72 5.144-11.208s-1.996-8.507-5.144-11.208c-3.148 2.701-5.144 6.72-5.144 11.208s1.996 8.507 5.144 11.208z"></path>
</symbol>

<symbol id="icon-menu" viewBox="0 0 32 32">
<path stroke-linejoin="round" stroke-linecap="round" stroke-miterlimit="4" stroke-width="2.2857" d="M4 16h24M4 8h24M4 24h24"></path>
</symbol>

</defs></svg>

<svg xmlns="http://www.w3.org/2000/svg" aria-hidden="true" style="position:absolute;width:0;height:0;overflow:hidden"><defs><symbol id="arrow" viewBox="0 0 32 32"><path d="M16.947 17.867a1.334 1.334 0 0 1-1.894 0l-6.107-6.12a1.334 1.334 0 1 0-1.894 1.88l6.12 6.12a4.001 4.001 0 0 0 5.654 0l6.12-6.12a1.337 1.337 0 0 0-.434-2.172 1.331 1.331 0 0 0-1.46.292l-6.107 6.12z"/></symbol><symbol id="chocolate" viewBox="0 0 32 32"><path fill="#fcf1e0" d="M3.944 20.076 14.721 2.652l.64-.674 8.236 5.491.056 3.314 2.01 3.28-8.88 14.077-12.839-8.063z" style="fill:var(--color2, #fcf1e0)"/><path fill="none" stroke="#fd9222" stroke-linecap="round" stroke-linejoin="round" stroke-width="2.667" d="M21.635 23.88 7.45 15.016m3.911-6.417 14.185 8.864M10.63 25.864l11.736-19.25m4.81 8.175c-3.04-1.899-4.234-3.384-2.278-6.592l-9.626-6.015-11.736 19.25 14.186 8.864 9.454-15.507z" style="stroke:var(--color1, #fd9222)"/></symbol><symbol id="chocolate-bar" viewBox="0 0 32 32"><path d="m13.597.456 8.306 8.316.088-.088a.948.948 0 0 1 1.306-.015l.963.963c.337.337.348.85.092 1.207l-.004.008-.158.212 6.797 6.797a1.539 1.539 0 0 1 0 2.185L20.581 30.447a1.539 1.539 0 0 1-2.185 0l-4.907-4.907a.918.918 0 0 1-.675.35.93.93 0 0 1-.71-.272l-2.869-2.869a.948.948 0 0 1-.015-1.306l.007-.008.085-.084-8.306-8.306a1.539 1.539 0 0 1 0-2.185L11.411.455a1.539 1.539 0 0 1 2.185 0v.001zm7.263 9.357-1.938-1.937a.655.655 0 0 0-.938 0l-3.95 3.95a.664.664 0 0 0-.146.731.68.68 0 0 0 .146.217l1.93 1.93.673-.673-1.727-1.727 3.542-3.553 1.731 1.737.676-.676zm-5.602 5.597-1.935-1.935a.655.655 0 0 0-.938 0l-3.961 3.961a.653.653 0 0 0 0 .938l1.933 1.933.68-.68-1.732-1.726 3.553-3.542 1.726 1.725.675-.674zM8.079 6.834l3.95 3.95a.644.644 0 0 0 .938-.011l3.95-3.95a.643.643 0 0 0 .199-.463h.011a.674.674 0 0 0-.199-.474l-3.95-3.95a.667.667 0 0 0-.948 0L8.08 5.897a.653.653 0 0 0 0 .938zm-5.594 5.594 3.95 3.95a.653.653 0 0 0 .938 0l3.95-3.95a.643.643 0 0 0 .199-.474h.011a.655.655 0 0 0-.199-.474l-3.95-3.95a.655.655 0 0 0-.938 0l-3.961 3.961a.653.653 0 0 0 0 .938zm7.65 9.66 2.606 2.607 10.633-14.389-.723-.723-12.516 12.504z" style="fill:var(--color3, #000)"/><path fill="#fd9222" d="m13.597.456 8.306 8.316.088-.088a.948.948 0 0 1 1.306-.015l.963.963c.337.337.348.85.092 1.207l-.004.008-.158.212 6.797 6.797a1.539 1.539 0 0 1 0 2.185L20.581 30.447a1.539 1.539 0 0 1-2.185 0l-4.907-4.907a.918.918 0 0 1-.675.35.93.93 0 0 1-.71-.272l-2.869-2.869a.948.948 0 0 1-.015-1.306l.007-.008.085-.084-8.306-8.306a1.539 1.539 0 0 1 0-2.185L11.411.455a1.539 1.539 0 0 1 2.185 0v.001zm7.263 9.357-1.938-1.937a.655.655 0 0 0-.938 0l-3.95 3.95a.664.664 0 0 0-.146.731.68.68 0 0 0 .146.217l1.93 1.93.673-.673-1.727-1.727 3.542-3.553 1.731 1.737.676-.676zm-5.602 5.597-1.935-1.935a.655.655 0 0 0-.938 0l-3.961 3.961a.653.653 0 0 0 0 .938l1.933 1.933.68-.68-1.732-1.726 3.553-3.542 1.726 1.725.675-.674zM8.079 6.834l3.95 3.95a.644.644 0 0 0 .938-.011l3.95-3.95a.643.643 0 0 0 .199-.463h.011a.674.674 0 0 0-.199-.474l-3.95-3.95a.667.667 0 0 0-.948 0L8.08 5.897a.653.653 0 0 0 0 .938zm-5.594 5.594 3.95 3.95a.653.653 0 0 0 .938 0l3.95-3.95a.643.643 0 0 0 .199-.474h.011a.655.655 0 0 0-.199-.474l-3.95-3.95a.655.655 0 0 0-.938 0l-3.961 3.961a.653.653 0 0 0 0 .938zm7.65 9.66 2.606 2.607 10.633-14.389-.723-.723-12.516 12.504z" style="fill:var(--color1, #fd9222)"/></symbol><symbol id="spoon" viewBox="0 0 32 32"><path fill="#fd9222" d="M15.452 14.106a5.154 5.154 0 0 1-1.177-3.282c0-4.324 5.181-8.642 10.362-8.642a5.183 5.183 0 0 1 5.181 5.182c0 5.182-4.318 10.364-8.646 10.364a5.15 5.15 0 0 1-3.281-1.177L5.133 29.312a1.73 1.73 0 0 1-2.445-2.445l12.764-12.761z" style="fill:var(--color1, #fd9222)"/></symbol><symbol id="oin" viewBox="0 0 32 32"><path fill="#fd9222" d="M16 2.667c-7.333 0-13.333 6-13.333 13.333s6 13.333 13.333 13.333 13.333-6 13.333-13.333S23.333 2.667 16 2.667zm0 24c-5.867 0-10.667-4.8-10.667-10.667S10.133 5.333 16 5.333 26.667 10.133 26.667 16 21.867 26.667 16 26.667z" style="fill:var(--color1, #fd9222)"/><path fill="#fd9222" d="M17.733 14.667h-3.467c-.667 0-1.2-.533-1.2-1.2s.533-1.2 1.2-1.2h4.933c.8 0 1.333-.533 1.333-1.333s-.533-1.333-1.333-1.333h-1.867v-1.2c0-.8-.533-1.333-1.333-1.333s-1.333.533-1.333 1.333v1.2h-.4c-2.133 0-3.867 1.733-3.867 3.867s1.733 3.867 3.867 3.867h3.333c.667 0 1.2.533 1.2 1.2s-.533 1.2-1.2 1.2h-4.933c-.8 0-1.333.533-1.333 1.333s.533 1.333 1.333 1.333h2v1.2c0 .8.533 1.333 1.333 1.333s1.333-.533 1.333-1.333v-1.2h.4c2.133 0 3.867-1.733 3.867-3.867s-1.733-3.867-3.867-3.867z" style="fill:var(--color1, #fd9222)"/></symbol><symbol id="instagram" viewBox="0 0 32 32"><path stroke-linecap="round" stroke-linejoin="round" stroke-width="2.667" d="M22.667 2.667H9.334a6.667 6.667 0 0 0-6.667 6.667v13.333a6.667 6.667 0 0 0 6.667 6.667h13.333a6.667 6.667 0 0 0 6.667-6.667V9.334a6.667 6.667 0 0 0-6.667-6.667z"/><path stroke-linecap="round" stroke-linejoin="round" stroke-width="2.667" d="M21.333 15.16a5.329 5.329 0 0 1-2.878 5.546 5.338 5.338 0 0 1-6.169-.992 5.33 5.33 0 0 1-.992-6.169 5.336 5.336 0 0 1 10.04 1.615zM23.333 8.667h.013"/></symbol><symbol id="twitter" viewBox="0 0 32 32"><path stroke-linecap="round" stroke-linejoin="round" stroke-width="2.667" d="M30.667 4a14.542 14.542 0 0 1-4.187 2.04 5.975 5.975 0 0 0-6.637-1.661A5.981 5.981 0 0 0 16 10.04v1.333c-2.343.061-4.665-.459-6.759-1.513S4.68 6.297 3.333 4.379c0 0-4.667 12.954 7.333 18.287a15.519 15.519 0 0 1-9.333 2.667C13.333 32 28 25.333 28 10a5.966 5.966 0 0 0-.107-1.107A10.288 10.288 0 0 0 30.666 4z"/></symbol><symbol id="play" viewBox="0 0 32 32"><path fill="#f5f4f4" d="M10.909 24V8.727l14.545 7.636-14.545 7.636z" style="fill:var(--color1, #f5f4f4)"/><path fill="none" stroke="#fff" stroke-width=".727" d="M31.636 16c0 8.636-7.001 15.636-15.636 15.636S.364 24.635.364 16C.364 7.364 7.365.364 16 .364S31.636 7.365 31.636 16z" style="stroke:var(--color2, #fff)"/></symbol><symbol id="ellipse" viewBox="0 0 32 32"><path fill="#4c4c4c" stroke="#eceded" stroke-width="4" d="M30 16c0 7.732-6.268 14-14 14S2 23.732 2 16 8.268 2 16 2s14 6.268 14 14z" style="fill:var(--color1, #4c4c4c);stroke:var(--color2, #eceded)"/></symbol><symbol id="arrow-right" viewBox="0 0 32 32"><path d="m19.414 27.414 10-10a2 2 0 0 0 0-2.828l-10-10a2 2 0 1 0-2.828 2.828L23.172 14H4a2 2 0 1 0 0 4h19.172l-6.586 6.586c-.39.39-.586.902-.586 1.414s.195 1.024.586 1.414a2 2 0 0 0 2.828 0z"/></symbol><symbol id="arrow-left" viewBox="0 0 32 32"><path d="m12.586 27.414-10-10a2 2 0 0 1 0-2.828l10-10a2 2 0 1 1 2.828 2.828L8.828 14H28a2 2 0 1 1 0 4H8.828l6.586 6.586c.39.39.586.902.586 1.414s-.195 1.024-.586 1.414a2 2 0 0 1-2.828 0z"/></symbol><symbol id="close" viewBox="0 0 32 32"><path d="M32 3.223 28.777 0 16 12.777 3.223 0 0 3.223 12.777 16 0 28.777 3.223 32 16 19.223 28.777 32 32 28.777 19.223 16 32 3.223z"/></symbol><symbol id="arrow-up" viewBox="0 0 32 32"><path d="m27.414 12.586-10-10a2 2 0 0 0-2.828 0l-10 10a2 2 0 1 0 2.828 2.828L14 8.828V28a2 2 0 1 0 4 0V8.828l6.586 6.586c.39.39.902.586 1.414.586s1.024-.195 1.414-.586a2 2 0 0 0 0-2.828z"/></symbol><symbol id="icon-flag" viewBox="0 0 32 32"><path fill="gold" d="M31.832 5.058H.243v23.508h31.589V5.058z" style="fill:var(--color1, #ffd700)"/><path fill="#0057b7" d="M.243 5.058h31.589v11.754H.243V5.058z" style="fill:var(--color2, #0057b7)"/></symbol><symbol id="icon-mastercard" viewBox="0 0 51 32"><path fill="#ed0006" d="M25.6 26.935a14.53 14.53 0 0 1-9.496 3.518c-8.086 0-14.641-6.593-14.641-14.726S8.018 1.001 16.104 1.001c3.624 0 6.94 1.324 9.496 3.518a14.532 14.532 0 0 1 9.497-3.518c8.086 0 14.64 6.593 14.64 14.726s-6.555 14.726-14.64 14.726c-3.624 0-6.94-1.324-9.497-3.518z" style="fill:var(--color1, #ed0006)"/><path fill="#f9a000" d="M25.6 26.935c3.148-2.701 5.144-6.72 5.144-11.209S28.748 7.219 25.6 4.518A14.53 14.53 0 0 1 35.097 1c8.086 0 14.64 6.593 14.64 14.726s-6.555 14.726-14.64 14.726c-3.624 0-6.94-1.324-9.497-3.518z" style="fill:var(--color2, #f9a000)"/><path fill="#ff5e00" d="M25.6 26.935c3.148-2.701 5.144-6.72 5.144-11.208S28.748 7.22 25.6 4.519c-3.148 2.701-5.144 6.72-5.144 11.208s1.996 8.507 5.144 11.208z" style="fill:var(--color3, #ff5e00)"/></symbol><symbol id="icon-menu" viewBox="0 0 32 32"><path stroke-linecap="round" stroke-linejoin="round" stroke-width="2.286" d="M4 16h24M4 8h24M4 24h24"/></symbol></defs></svg>
